X:4849
L:1/8
Q:1/4=120
M:2/2
K:A
 E2 | AAAc efec | eaec efec | dedB cdcA | FBBA GABc | A>AA>c efec | eaec efec | decd BcAB | 
 EAGB cAAg | aaag aAce | aAgA fAeA | dedB cdcA | FBBA GBBd | cAdA aAeA | fdBf ecAc | decd BcAB | 
 EAGB cAA :|

